X: 21254
T: FAIRY GALLOP
C: Strauss.
Q: "Quick and with spirit."
%R: galop, reel
B: W. Hamilton "Universal Tune-Book" Vol. 2 Glasgow 1846 p.125 #4
S: http://s3-eu-west-1.amazonaws.com/itma.dl.printmaterial/book_pdfs/hamiltonvol2web.pdf
Z: 2016 John Chambers <jc:trillian.mit.edu>
M: 2/4
L: 1/16
K: G
% - - - - - - - - - - - - - - - - - - - - - - - - -
|:\
.G.A.B.c .d.B.e.d | .c.B.A.G .F.D.E.F |\
.G.A.B.c .d.B.g.e | .d.c.B.A G4 |\
.G.A.B.c .d.B.e.d | .c.B.A.G .F.D.E.F |\
.G.A.B.c .d.B.g.e | .d.c.B.A G4 :|
|:\
.D.E.F.G .A.A(AB) | .G.A.B.c .d.d(dg) |\
.e.d.c.B (AB).c.d | .e.d.c.B (Ac).B.A |\
.G.A.B.c .d.B.e.d | .c.B.A.G .F.D.E.F |\
.G.A.B.c .d.e.f.g | .d.B.c.A G4 :|
% - - - - - - - - - - - - - - - - - - - - - - - - -
